svg/library.svg

<svg xmlns="http://www.w3.org/2000/svg" viewBox="0 0 32 32"><path d="M16 3.906l-.375.156-12 5L3 9.345V12h2v11H3v5h26v-5h-2V12h2V9.344l-.625-.28-12-5.002L16 3.906zm0 2.188L25.375 10H6.625L16 6.094zM7 12h2v11H7V12zm4 0h2v11h-2V12zm4 0h2v11h-2V12zm4 0h2v11h-2V12zm4 0h2v11h-2V12zM5 25h22v1H5v-1z"/></svg>

<svg xmlns="http://www.w3.org/2000/svg" viewBox="0 0 32 32" enable-background="new 0 0 32 32"><path d="M 16 3.90625 L 15.625 4.0625 L 3.625 9.0625 L 3 9.34375 L 3 10 L 3 11 L 3 12 L 4 12 L 5 12 L 5 23 L 4 23 L 3 23 L 3 24 L 3 27 L 3 28 L 4 28 L 28 28 L 29 28 L 29 27 L 29 24 L 29 23 L 28 23 L 27 23 L 27 12 L 28 12 L 29 12 L 29 11 L 29 10 L 29 9.34375 L 28.375 9.0625 L 16.375 4.0625 L 16 3.90625 z M 16 6.09375 L 25.375 10 L 6.625 10 L 16 6.09375 z M 7 12 L 9 12 L 9 23 L 7 23 L 7 12 z M 11 12 L 13 12 L 13 23 L 11 23 L 11 12 z M 15 12 L 17 12 L 17 23 L 15 23 L 15 12 z M 19 12 L 21 12 L 21 23 L 19 23 L 19 12 z M 23 12 L 25 12 L 25 23 L 23 23 L 23 12 z M 5 25 L 27 25 L 27 26 L 5 26 L 5 25 z"/></svg>
